X:145
T:Figure 3, The
M:C |
L:1/8
B:Thompson's Compleat Collection of 200 Favourite Country Dances, vol. 2 (London, 1765)
Z:Transcribed and edited by Flynn Titford-Mock, 2007
Z:abc's:AK/Fiddler's Companion
K:D
d2 D>E FDAF | E>FGA Bc d2 | f2 ed B2 AG | FAdF E4 | d2 D>E FDAF | E>FGA Bc d2 |
f>gaf bgaf | edef d4 :: a2 fd a2 fd | cecA (c/d/e) cA | a2 fd a2 fd |
b2 gf e4 | d2 D>E FDAF | dAdF E3F | G>ABc dBgf | edef d4 :|

